!!!!SEGMENT: pl-kk--kk-i-176--001_mel-rinaldo-del--hodie-christus-natus-est.krn
!!!cenid: 17xx:2168
!!!COM: Mel, Rinaldo del
!!!COM-rism: pe327026
!!!CDT: ~1554-~1598
!!!CNT: French-Flemish
!!!OTL: Hodie Christus natus est
!!!PDT:
!!!AGN: Sacred
!!!SMS-siglum: PL-Kk
!!!SMS-shelfmark: Kk.I.176
!!!NIFC-rismID: 1001147316
!!!URL-scan: http://repozytorium.nifc.pl/skany/pl-kk-nut--i-176
!!!ONB-nifc: UWAGA: utwory w zbiorze: 1. Hodie Christus natus est, 2. Pueri Hebraeorum portantes
!!!SMS-variant:
!!!SMS-altvar:
**kern	**text
*I"Basso	*
*clefF3	*
*k[b-]	*
*M2/1	*
*met(c|)	*
=1-	=1-
00r	.
=2-	=2-
.	.
=3-	=3-
00r	.
=4-	=4-
.	.
=5-	=5-
00r	.
=6-	=6-
.	.
=7-	=7-
0r	.
=8-	=8-
0F\	Ho-
=9-	=9-
1G\	-di-
*2\right	*
2A\	-e
1B-\	(Chris)-
=10-	=10-
.	.
2A\	-t(us)
2G\	na-
2G\	-t(us)
=11-	=11-
!LO:TX:t=P:problem:kreska pseudotaktowa	!
1F\	est
0r	.
=12-	=12-
.	.
1r	.
=13-	=13-
2.F/	ho-
4G/	.
4A/	.
4B-/	.
1c\	.
=14-	=14-
.	.
2B-\	-di-
2c\	-e
2d\	(Chris)-
=15-	=15-
2B-\	-t(us)
2c\	na-
1F\	-tus
=16-	=16-
!LO:TX:t=P:problem:kreska pseudotaktowa	!
0G\	est
=17-	=17-
2r	.
1F\	ho-
2F/	-di-
=18-	=18-
2E-X/	-e
2C/	Sal-
1G\	-va-
=19-	=19-
2D/	-tor
!LO:TX:t=P:problem:kreska pseudotaktowa	!
2E/	ap-
!!LO:LB:g=original
2.F\	-pa-
4G\	-ruit
=20-	=20-
1A\	ap-
2.G\	-pa-
4G\	-ru-
=21-	=21-
!LO:TX:t=P:problem:kreska pseudotaktowa	!
!LO:TX:a:t=2	!
00C/	-it
=22-	=22-
.	.
=23-	=23-
00r	.
=24-	=24-
.	.
=25-	=25-
0r	.
=26-	=26-
2r	.
1c\	ho-
2G\	-di-
=27-	=27-
2A\	-e
2B-\	in
1c\	ter-
=28-	=28-
2A\	-ra
2.c\	ca-
4B-\	.
4A\	.
4G\	.
=29-	=29-
2F/	.
2E/	-nunt
2F\	an-
2G\	-ge-
=30-	=30-
!LO:TX:t=P:problem:kreska pseudotaktowa	!
1A\	-li
2.F/	ca-
4E/	.
=31-	=31-
4D/	.
4C/	.
2.BB-/	.
4C/	.
4D/	.
!LO:TX:t=P:problem:kreska pseudotaktowa	!
4E/	.
=32-	=32-
4F\	.
4G\	.
4A\	.
4B-\	.
2c\	.
2G\	-nunt
!!LO:LB:g=original
=33-	=33-
2.c\	an-
4B-\	.
4A\	.
4G\	.
1F\	.
=34-	=34-
.	.
2E/	.
2.D/	.
!LO:TX:t=P:problem:kreska pseudotaktowa	!
4D/	-ge-
=35-	=35-
*M3/2	*
1C/	-li
2r	.
=36-	=36-
1.r	.
=37-	=37-
2r	.
2r	.
2F/	lae-
=38-	=38-
2B-\	-tan-
2E/	-t(ur)
2F/	ar-
=39-	=39-
1C/	-chan-
2C/	-ge-
=40-	=40-
*M2/1	*
*met(c|)	*
1F\,	-li,
1.B-\	ho-
=41-	=41-
.	.
2B-\	-di-
2F\	-e
!LO:TX:t=P:problem:kreska pseudotaktowa	!
2F\	e-
=42-	=42-
2.c\	-xul-
8B-\	.
!LO:TX:t=P:problem:kreska pseudotaktowa	!
8A\	.
4B-\	.
4c\	.
4d\	.
4B-\	.
=43-	=43-
2c\	.
2c\	-tant
1A\	jus-
=44-	=44-
!LO:TX:t=P:problem:kreska pseudotaktowa	!
1G\	-ti
!!LO:LB:g=original
00r	.
=45-	=45-
.	.
=46-	=46-
.	.
2r	.
2F/	di-
=47-	=47-
2.B-\	-cen-
4A\	.
1G\	.
=48-	=48-
!LO:TX:t=P:problem:kreska pseudotaktowa	!
1F\	-tes
00r	.
=49-	=49-
.	.
=50-	=50-
.	.
00r	.
=51-	=51-
.	.
=52-	=52-
.	.
0r	.
=53-	=53-
.	.
1r	.
=54-	=54-
1C/	glo-
1D/	.
=55-	=55-
2.F\	-ri-
4F\	-a
1.F\	in
=56-	=56-
.	.
2E/	ex-
2F/	-cel-
2G/	-sis
=57-	=57-
!LO:TX:t=P:problem:kreska pseudotaktowa	!
1D/	.
2.F/	De-
4G\	.
=58-	=58-
2A\	.
2B-\	.
2c\	-o
2A\	in
=59-	=59-
2B-\	ex-
1c\	-cel-
2A\	-sis
=60-	=60-
2.G\	De-
8F/	.
8E/	.
0D/	-o
=61-	=61-
.	.
!!LO:LB:g=original
1A\	in
=62-	=62-
2G\	ex-
2.B-\	-cel-
8A\	.
8G\	.
4F/	.
4G/	.
=63-	=63-
4A\	.
4B-\	.
1c\	-sis
2d\	.
=64-	=64-
2c\	De-
2c\	-o
!LO:TX:t=P:problem:kreska pseudotaktowa	!
0F\	.
=65-	=65-
.	.
0r	.
=66-	=66-
.	.
2r	.
2C/	al-
=67-	=67-
2.F/	-le-
8E/	.
8D/	.
4C/	.
4D/	.
4E/	.
4F/	.
=68-	=68-
2.G\	.
8F/	.
8E/	.
4D/	.
4E/	.
2F/	.
=69-	=69-
1C/	-lu-
00F\;	-ia.
==	==
*-	*-
!!!EED: Leszek Kubiak
!!!EST: 2021-04-08
!!!ENC: Tomasz Grochalski
!!!END: 2021-03-18
